Catalina-light/actions/16/color-gradient.svg

<svg width="16" height="16" version="1.1" viewBox="0 0 16 16" xmlns="http://www.w3.org/2000/svg">
<defs>
<style id="current-color-scheme" type="text/css">.ColorScheme-Text { color:#5c616c; } .ColorScheme-Highlight { color:#5294e2; }</style>
</defs>
<path class="ColorScheme-Text" d="m1 1h14v14h-14z" fill="currentColor" opacity=".3"/>
<path class="ColorScheme-Text" d="m2 2v4h3.293l4.707 4.705v3.295h4v-4h-3.291l-4.709-4.707v-3.293h-4z" fill="currentColor"/>
</svg>

<svg xmlns="http://www.w3.org/2000/svg" width="16" height="16" version="1.1" viewBox="0 0 16 16">
 <defs>
  <style id="current-color-scheme" type="text/css">
   .ColorScheme-Text { color:#5c616c; } .ColorScheme-Highlight { color:#5294e2; }
  </style>
 </defs>
 <path style="opacity:0.3;fill:currentColor" class="ColorScheme-Text" d="M 1,1 15,1 15,15 1,15 Z"/>
 <path style="fill:currentColor" class="ColorScheme-Text" d="M 2,2 2,6 5.293,6 10,10.705 10,14 14,14 14,10 10.709,10 6,5.293 6,2 2,2 Z"/>
</svg>
